X:1
T:Mary Had a Baby
M:4/4
L:1/8
K:E
 EE EE F G3| E4 C- B,3| EE EE F2 G2| E2=D-C B,4| EE EE F G3| c4 B- G2 G|\
 BB BG BB Bc|G-E F2 E4|
